X: 21213
T: FRA DIAVOLO SETT (tune 7)
C:
%R: jig
B: Elias Howe "The Musician's Companion" 1843 p.121 #3
S: http://imslp.org/wiki/The_Musician's_Companion_(Howe,_Elias)
Z: 2015 John Chambers <jc:trillian.mit.edu>
M: 6/8
L: 1/8
K: G
% - - - - - - - - - - - - - - - - - - - - - - - - - - - - -
V: 1 name="7"
D |\
(d2c) BAG | (e2d) cBA | G(cB) [BG](ed) | dcB A2D |\
(d2c) BAG | e2d cBA | G(cB) [BG](ed) | cBA G2 H|]
D(FE) D(AG) | F(cB) A(ed) | BGA Bcd | ecA F2z |\
D(FE) D(AG) | F(cB) A(ed) | BGA Bcd | ecA G2"^D.C."z |]
d |\
e2B (gfe) | f2B agf | g2e bag | f2e ^d^cB |\
e2B gfe | f2B agf | g2e bag | e3 "^D.C."z2 |]
% - - - - - - - - - - Dance description - - - - - - - - - -
%%begintext align
%% First four lead to the right,
%% chassa out,
%% form lines across the hall,
%% all right and left,
%% all chain,
%% all forward and back,
%% all swing to place with partners,
%% side couples to the right, &c.,
%% forming lines lengthways the hall.
%%endtext
% - - - - - - - - - - - - - - - - - - - - - - - - - - - - -
%%sep 1 1 300

%%sep 1 1 500

